X: 1
T: Old An Dro
C: Trad
R: An Dro
L: 1/8
M: 4/4
K: Em
Z: ABC transcription by Verge Roller
r: 16
|: "Em" EFGE "D" F2 F2 | "Em" EFGE "D" F2 F2 | "Em" EFED "G" B,DEG | "D" FE D2 "Em" E4 :|
"Em" EFGF E2 B2 | "Am" A2 B2 G2 F2 | "Em" EFGF E2 B2 | "A" ^cB A2 "Em" B4 :|
